public/assets/images/others/icon/10.svg

<svg width="48" height="48" viewBox="0 0 48 48" fill="none" xmlns="http://www.w3.org/2000/svg">
<path d="M25.2977 37.4895H22.7028C21.3924 37.4895 20.3259 36.4307 20.3259 35.1299V34.0325C20.3259 33.8455 20.1995 33.6728 20.0048 33.5918C19.7936 33.507 19.5853 33.5388 19.4541 33.668L18.6683 34.4481C17.7406 35.3671 16.2325 35.3671 15.3058 34.4481L13.4707 32.6266C12.5441 31.7076 12.5441 30.2101 13.4707 29.2911L14.2566 28.511C14.3878 28.3808 14.4215 28.1745 14.3425 27.9845C14.2538 27.7714 14.0802 27.6461 13.8902 27.6461H12.7842C11.4727 27.6461 10.4062 26.5873 10.4062 25.2865V22.7108C10.4062 21.41 11.4727 20.3522 12.7842 20.3522H13.8902C14.0792 20.3522 14.2537 20.2268 14.3347 20.0321C14.4215 19.8238 14.3878 19.6165 14.2566 19.4863L13.4707 18.7062C12.5441 17.7862 12.5441 16.2887 13.4707 15.3697L15.3058 13.5492C16.2035 12.6572 17.7695 12.6572 18.6683 13.5492L19.4541 14.3293C19.5853 14.4595 19.7945 14.4932 19.9855 14.4141C20.2005 14.3264 20.3268 14.1538 20.3268 13.9657V12.8674C20.3268 11.5666 21.3933 10.5078 22.7038 10.5078H25.2987C26.6091 10.5078 27.6766 11.5656 27.6766 12.8674V13.9657C27.6766 14.1538 27.8029 14.3264 27.9977 14.4064C28.2089 14.4932 28.4172 14.4595 28.5483 14.3293L29.3342 13.5492C30.231 12.6572 31.7989 12.6572 32.6957 13.5492L34.5308 15.3697C35.4574 16.2887 35.4574 17.7862 34.5308 18.7062L33.7449 19.4863C33.6137 19.6155 33.58 19.8228 33.66 20.0137C33.7487 20.2268 33.9223 20.3522 34.1113 20.3522H35.2173C36.5278 20.3522 37.5952 21.41 37.5952 22.7108V25.2865C37.5952 26.5873 36.5287 27.6461 35.2173 27.6461H34.1113C33.9223 27.6461 33.7478 27.7714 33.6677 27.9643C33.579 28.1774 33.6118 28.3789 33.7449 28.511L34.5308 29.2911C35.4584 30.2101 35.4584 31.7076 34.5308 32.6266L32.6957 34.4481C31.769 35.3671 30.2609 35.3671 29.3342 34.4481L28.5483 33.668C28.4152 33.5359 28.2137 33.5031 28.018 33.5841L27.9977 33.5918C27.7923 33.6873 27.6766 33.8522 27.6766 34.0325V35.1299C27.6747 36.4307 26.6082 37.4895 25.2977 37.4895ZM19.7733 31.6517C20.0877 31.6517 20.4059 31.7125 20.7106 31.8368C21.6402 32.2148 22.2303 33.075 22.2303 34.0325V35.1299C22.2303 35.3883 22.4415 35.5985 22.7028 35.5985H25.2977C25.5581 35.5985 25.7702 35.3883 25.7702 35.1299V34.0325C25.7702 33.075 26.3604 32.2158 27.2726 31.8436L27.3266 31.8214C28.2234 31.4723 29.2272 31.6681 29.8935 32.3315L30.6794 33.1116C30.8636 33.2949 31.1635 33.2949 31.3476 33.1116L33.1827 31.2901C33.3669 31.1069 33.3669 30.8099 33.1827 30.6276L32.3968 29.8475C31.7334 29.1889 31.5328 28.2034 31.8751 27.3192L31.9137 27.2266C32.2801 26.3404 33.146 25.7551 34.1103 25.7551H35.2164C35.4767 25.7551 35.6889 25.5449 35.6889 25.2865V22.7108C35.6889 22.4524 35.4767 22.2422 35.2164 22.2422H34.1103C33.1451 22.2422 32.2791 21.6569 31.905 20.7505C31.5241 19.8363 31.7199 18.8219 32.3968 18.1498L33.1827 17.3697C33.3669 17.1865 33.3669 16.8895 33.1827 16.7062L31.3476 14.8857C31.2271 14.7661 31.0863 14.7478 31.014 14.7478C30.9417 14.7478 30.8009 14.7661 30.6804 14.8857L29.8945 15.6658C29.2175 16.3379 28.1964 16.5336 27.2899 16.1614C26.3604 15.7825 25.7712 14.9233 25.7712 13.9657V12.8674C25.7712 12.609 25.559 12.3988 25.2987 12.3988H22.7038C22.4434 12.3988 22.2313 12.609 22.2313 12.8674V13.9657C22.2313 14.9242 21.6411 15.7834 20.728 16.1556C19.808 16.5317 18.784 16.3388 18.108 15.6667L17.3221 14.8866C17.2016 14.7671 17.0608 14.7487 16.9875 14.7487C16.9142 14.7487 16.7744 14.7671 16.6539 14.8866L14.8188 16.7072C14.6346 16.8904 14.6346 17.1874 14.8188 17.3706L15.6047 18.1507C16.2816 18.8228 16.4784 19.8373 16.1042 20.735C15.7224 21.6578 14.8564 22.2432 13.8912 22.2432H12.7851C12.5248 22.2432 12.3126 22.4534 12.3126 22.7118V25.2874C12.3126 25.5458 12.5248 25.7561 12.7851 25.7561H13.8912C14.8564 25.7561 15.7224 26.3414 16.0975 27.2468C16.4784 28.162 16.2816 29.1764 15.6047 29.8485L14.8188 30.6286C14.6346 30.8118 14.6346 31.1088 14.8188 31.2911L16.6539 33.1126C16.838 33.2958 17.1379 33.2958 17.3221 33.1126L18.108 32.3325C18.5554 31.887 19.1562 31.6517 19.7733 31.6517Z" fill="#615EFC"/>
<path d="M23.999 29.2563C21.0791 29.2563 18.7031 26.8986 18.7031 24C18.7031 21.1023 21.0791 18.7446 23.999 18.7446C26.9198 18.7446 29.2948 21.1023 29.2948 24C29.2948 26.8986 26.9198 29.2563 23.999 29.2563ZM23.999 20.6346C22.1292 20.6346 20.6086 22.1447 20.6086 24C20.6086 25.8553 22.1302 27.3653 23.999 27.3653C25.8678 27.3653 27.3904 25.8553 27.3904 24C27.3904 22.1447 25.8687 20.6346 23.999 20.6346Z" fill="#615EFC"/>
<path d="M4.06528 21.6345C4.01996 21.6345 3.97368 21.6316 3.92739 21.6249C3.40668 21.5496 3.04603 21.0704 3.12125 20.5545C4.37096 11.9839 10.9377 4.97743 19.464 3.11925C19.9741 3.0045 20.4851 3.32947 20.598 3.83957C20.7108 4.34872 20.3858 4.854 19.8719 4.96489C12.1171 6.65529 6.14332 13.0283 5.00643 20.8245C4.93796 21.2951 4.53103 21.6345 4.06528 21.6345Z" fill="#615EFC"/>
<path d="M19.6692 44.0611C19.6017 44.0611 19.5332 44.0533 19.4638 44.0389C10.7582 42.1421 4.16926 34.9717 3.06612 26.1967C3.00055 25.6789 3.37083 25.2064 3.89348 25.1418C4.41998 25.0829 4.89151 25.4445 4.95708 25.9624C5.9609 33.9447 11.9549 40.4681 19.8736 42.1932C20.3876 42.3051 20.7125 42.8084 20.5997 43.3195C20.5004 43.7602 20.107 44.0611 19.6692 44.0611Z" fill="#615EFC"/>
<path d="M27.522 44.224C27.0678 44.224 26.6667 43.901 26.5847 43.442C26.4941 42.928 26.8403 42.4381 27.3591 42.3475C35.5757 40.9146 42.0355 34.1761 43.0682 25.9614C43.1338 25.4436 43.6044 25.0781 44.1318 25.1408C44.6535 25.2054 45.0238 25.6779 44.9592 26.1957C43.8242 35.2272 36.7223 42.6349 27.6888 44.2105C27.6319 44.2192 27.577 44.224 27.522 44.224Z" fill="#615EFC"/>
<path d="M43.958 21.6345C43.4922 21.6345 43.0843 21.2951 43.0168 20.8245C41.8269 12.6715 35.535 6.23486 27.3588 4.80868C26.841 4.71804 26.4948 4.22818 26.5845 3.71422C26.6761 3.19929 27.1717 2.856 27.6876 2.94664C36.6767 4.51361 43.5945 11.5895 44.9011 20.5535C44.9763 21.0704 44.6156 21.5496 44.0959 21.6239C44.0496 21.6316 44.0043 21.6345 43.958 21.6345Z" fill="#615EFC"/>
<path d="M18.7077 8.58588C18.5997 8.58588 18.4908 8.56755 18.3837 8.52898C17.8891 8.35059 17.6335 7.80866 17.8119 7.31784L19.0452 3.94284L15.5622 2.6912C15.0676 2.5128 14.812 1.97087 14.9904 1.48102C15.1698 0.990196 15.7175 0.736589 16.2102 0.914018L20.5891 2.48773C20.8263 2.57355 21.0201 2.74905 21.1281 2.97566C21.2351 3.20227 21.2467 3.46263 21.1609 3.69791L19.6045 7.96198C19.4637 8.3477 19.0983 8.58588 18.7077 8.58588Z" fill="#615EFC"/>
<path d="M44.3632 22.08C44.2031 22.08 44.0411 22.0405 43.8926 21.9556L39.9227 19.7088C39.4646 19.4504 39.3055 18.8728 39.5678 18.4196C39.8262 17.9654 40.4087 17.8073 40.8667 18.0667L44.0093 19.8458L45.8453 16.6521C46.1037 16.1988 46.6862 16.0397 47.1442 16.2991C47.6022 16.5585 47.7613 17.1352 47.4991 17.5884L45.1915 21.6027C45.016 21.9084 44.694 22.08 44.3632 22.08Z" fill="#615EFC"/>
<path d="M30.4012 47.1427C30.1852 47.1427 29.9683 47.0704 29.7899 46.9219L26.2211 43.9529C26.0272 43.7909 25.9067 43.5604 25.8845 43.3116C25.8623 43.0619 25.9414 42.8131 26.1034 42.6212L29.0406 39.1459C29.3791 38.7467 29.9789 38.6946 30.3829 39.0283C30.786 39.3638 30.839 39.9607 30.5015 40.3599L28.1766 43.1111L31.0155 45.4736C31.4186 45.8091 31.4716 46.406 31.1341 46.8052C30.9441 47.027 30.6741 47.1427 30.4012 47.1427Z" fill="#615EFC"/>
<path d="M1.32629 30.399C1.1315 30.399 0.935751 30.3402 0.767001 30.2177C0.341751 29.9101 0.248215 29.3199 0.556786 28.8966L3.29729 25.16C3.60682 24.7386 4.20179 24.6441 4.628 24.9527L8.32314 27.6209C8.74839 27.9285 8.84193 28.5186 8.53336 28.9419C8.22382 29.3633 7.62789 29.4559 7.20264 29.1493L4.277 27.0365L2.09675 30.0094C1.91064 30.264 1.62039 30.399 1.32629 30.399Z" fill="#615EFC"/>
</svg>

<svg xmlns="http://www.w3.org/2000/svg" width="48" height="48" fill="none" viewBox="0 0 48 48"><path fill="#615efc" d="M25.298 37.49h-2.595a2.37 2.37 0 0 1-2.377-2.36v-1.098a.49.49 0 0 0-.321-.44c-.211-.085-.42-.053-.55.076l-.787.78a2.395 2.395 0 0 1-3.362 0l-1.835-1.821a2.35 2.35 0 0 1 0-3.336l.786-.78a.48.48 0 0 0 .085-.526c-.088-.214-.262-.339-.452-.339h-1.106a2.37 2.37 0 0 1-2.378-2.36v-2.575a2.37 2.37 0 0 1 2.378-2.359h1.106a.49.49 0 0 0 .445-.32c.086-.208.053-.416-.078-.546l-.786-.78a2.35 2.35 0 0 1 0-3.336l1.835-1.82c.897-.893 2.464-.893 3.362 0l.786.78c.131.13.34.163.531.084.216-.088.342-.26.342-.448v-1.099c0-1.3 1.066-2.36 2.377-2.36h2.595a2.37 2.37 0 0 1 2.378 2.36v1.099c0 .188.126.36.32.44.212.087.42.053.551-.077l.786-.78c.897-.892 2.465-.892 3.362 0l1.835 1.82a2.35 2.35 0 0 1 0 3.337l-.786.78a.48.48 0 0 0-.085.528c.089.213.262.338.451.338h1.106a2.37 2.37 0 0 1 2.378 2.359v2.576c0 1.3-1.066 2.36-2.378 2.36h-1.106a.49.49 0 0 0-.443.317c-.089.213-.056.415.077.547l.786.78a2.347 2.347 0 0 1 0 3.336l-1.835 1.821a2.394 2.394 0 0 1-3.362 0l-.786-.78c-.133-.132-.334-.165-.53-.084l-.02.008c-.206.095-.321.26-.321.44v1.098a2.374 2.374 0 0 1-2.38 2.36m-5.525-5.838c.315 0 .633.06.938.185.93.378 1.52 1.238 1.52 2.195v1.098a.47.47 0 0 0 .472.468h2.595a.47.47 0 0 0 .472-.468v-1.098c0-.957.59-1.816 1.503-2.188l.054-.023c.896-.349 1.9-.153 2.566.51l.786.78a.475.475 0 0 0 .669 0l1.835-1.82a.466.466 0 0 0 0-.663l-.786-.78a2.35 2.35 0 0 1-.522-2.529l.039-.092a2.38 2.38 0 0 1 2.196-1.472h1.106c.26 0 .473-.21.473-.468V22.71a.47.47 0 0 0-.473-.469H34.11a2.39 2.39 0 0 1-2.205-1.492c-.38-.914-.185-1.928.492-2.6l.786-.78a.467.467 0 0 0 0-.664l-1.835-1.82a.473.473 0 0 0-.668 0l-.785.78a2.39 2.39 0 0 1-2.605.495c-.93-.379-1.519-1.238-1.519-2.195v-1.099a.47.47 0 0 0-.472-.468h-2.595c-.26 0-.473.21-.473.468v1.099c0 .958-.59 1.817-1.503 2.19-.92.376-1.944.183-2.62-.49l-.786-.78a.474.474 0 0 0-.668 0l-1.835 1.821a.467.467 0 0 0 0 .664l.786.78a2.35 2.35 0 0 1 .5 2.584c-.383.923-1.249 1.508-2.214 1.508h-1.106c-.26 0-.472.21-.472.469v2.575c0 .259.212.47.472.47h1.106a2.39 2.39 0 0 1 2.207 1.49c.38.915.184 1.93-.493 2.602l-.786.78a.466.466 0 0 0 0 .662l1.835 1.822a.475.475 0 0 0 .668 0l.786-.78a2.35 2.35 0 0 1 1.665-.681"/><path fill="#615efc" d="M23.999 29.256c-2.92 0-5.296-2.357-5.296-5.256S21.08 18.745 24 18.745s5.296 2.357 5.296 5.255c0 2.899-2.375 5.256-5.296 5.256m0-8.621c-1.87 0-3.39 1.51-3.39 3.365s1.521 3.365 3.39 3.365 3.39-1.51 3.39-3.365-1.52-3.365-3.39-3.365m-19.935 1a.947.947 0 0 1-.944-1.08c1.25-8.571 7.817-15.578 16.343-17.436a.944.944 0 1 1 .408 1.846c-7.755 1.69-13.729 8.063-14.866 15.86a.95.95 0 0 1-.94.81M19.67 44.061a1 1 0 0 1-.206-.022c-8.706-1.897-15.295-9.067-16.398-17.842a.953.953 0 0 1 1.891-.234c1.004 7.982 6.998 14.505 14.917 16.23a.945.945 0 0 1 .726 1.127.954.954 0 0 1-.93.741m7.852.163a.95.95 0 0 1-.937-.782.947.947 0 0 1 .774-1.095c8.217-1.432 14.676-8.17 15.71-16.386a.95.95 0 0 1 1.063-.82.947.947 0 0 1 .827 1.055c-1.135 9.031-8.237 16.439-17.27 18.015a1 1 0 0 1-.167.013m16.436-22.589a.95.95 0 0 1-.941-.81c-1.19-8.153-7.482-14.59-15.658-16.016a.95.95 0 0 1-.775-1.095.953.953 0 0 1 1.104-.767c8.989 1.567 15.906 8.642 17.213 17.607a.946.946 0 0 1-.943 1.08"/><path fill="#615efc" d="M18.708 8.586a.945.945 0 0 1-.896-1.268l1.233-3.375-3.483-1.252a.944.944 0 0 1-.572-1.21.956.956 0 0 1 1.22-.567l4.38 1.574a.94.94 0 0 1 .572 1.21l-1.557 4.264a.95.95 0 0 1-.897.624M44.363 22.08a.94.94 0 0 1-.47-.124l-3.97-2.247a.94.94 0 0 1-.355-1.29.954.954 0 0 1 1.299-.352l3.142 1.779 1.836-3.194a.955.955 0 0 1 1.3-.353.94.94 0 0 1 .354 1.29l-2.308 4.014a.95.95 0 0 1-.828.477M30.401 47.143a.95.95 0 0 1-.611-.221l-3.569-2.97a.94.94 0 0 1-.118-1.332l2.938-3.474a.96.96 0 0 1 1.342-.118.94.94 0 0 1 .119 1.332l-2.325 2.751 2.839 2.363a.94.94 0 0 1 .118 1.331.96.96 0 0 1-.733.338M1.326 30.399a.948.948 0 0 1-.77-1.502l2.741-3.737a.956.956 0 0 1 1.331-.207l3.695 2.668a.94.94 0 0 1 .21 1.32.96.96 0 0 1-1.33.208l-2.926-2.113-2.18 2.973a.95.95 0 0 1-.77.39"/></svg>
